img/services/01.svg

<svg width="30" height="36" viewBox="0 0 30 36" fill="none" xmlns="http://www.w3.org/2000/svg">
<path d="M28.3534 5.36161L24.3741 1.5514C22.91 0.149533 20.5262 0.149533 19.0622 1.5514L13.7502 6.63767L17.7295 10.4479L21.7088 6.63767L28.3534 13C29.4081 11.9855 30.0002 10.6123 30.0002 9.1808C30.0002 7.74932 29.4081 6.3761 28.3534 5.36161Z" fill="white"/>
<path d="M3.26962 20.9822C4.29545 22.0059 5.94721 22.0059 6.95566 20.9822L11.2502 16.6961L7.5642 13L3.26962 17.2861C2.24379 18.3099 2.24379 19.9584 3.26962 20.9822Z" fill="white"/>
<path d="M20.5404 10.6679L25.7145 15.6822C25.8843 15.8462 26.0191 16.041 26.111 16.2553C26.2029 16.4696 26.2502 16.6993 26.2502 16.9313C26.2502 17.1633 26.2029 17.393 26.111 17.6074C26.0191 17.8217 25.8843 18.0164 25.7145 18.1805C25.5446 18.3445 25.3429 18.4746 25.121 18.5634C24.899 18.6522 24.6612 18.6979 24.4209 18.6979C24.1807 18.6979 23.9428 18.6522 23.7209 18.5634C23.499 18.4746 23.2973 18.3445 23.1274 18.1805L6.26596 34.4635C4.83485 35.8455 2.5047 35.8455 1.07358 34.4635C-0.357535 33.0815 -0.357535 30.8313 1.07358 29.4492L14.0454 16.9225L8.21081 11.2881C7.95341 11.0425 7.74905 10.7501 7.60957 10.4277C7.47009 10.1053 7.39827 9.75936 7.39827 9.40996C7.39827 9.06056 7.47009 8.71463 7.60957 8.39223C7.74905 8.06983 7.95341 7.77738 8.21081 7.53183C9.27497 6.48646 11.018 6.48646 12.1005 7.54955L17.9351 13.1839L20.5404 10.6679Z" fill="white"/>
</svg>

<svg width="30" height="36" viewBox="0 0 30 36" fill="none" xmlns="http://www.w3.org/2000/svg"><path d="M28.353 5.362l-3.979-3.81C22.91.15 20.526.15 19.062 1.551L13.75 6.637l3.98 3.81 3.979-3.81L28.353 13A5.299 5.299 0 0030 9.18a5.299 5.299 0 00-1.647-3.818zM3.27 20.982a2.596 2.596 0 003.686 0l4.294-4.286L7.564 13 3.27 17.286a2.604 2.604 0 000 3.696z" fill="#fff"/><path d="M20.54 10.668l5.175 5.014c.17.164.304.359.396.573a1.714 1.714 0 010 1.352 1.765 1.765 0 01-.396.573 1.81 1.81 0 01-.594.383 1.886 1.886 0 01-1.994-.383L6.266 34.465c-1.431 1.382-3.761 1.382-5.192 0a3.465 3.465 0 010-5.015l12.971-12.527-5.834-5.634a2.638 2.638 0 01-.601-.86 2.562 2.562 0 010-2.036c.14-.322.343-.615.6-.86 1.065-1.046 2.808-1.046 3.89.018l5.835 5.634 2.605-2.516z" fill="#fff"/></svg>
